!!!COM: Hugo Wolf
!!!CNT: Deutscher
!!!TXO: Deutsche 
!!!OTL: Verschwiegene Liebe
!!!ODT: 1888/08/31
!!!LYR: Joseph von Eichendorff
!!!ENC: Brian Bice
!!!YOR: 45 Songs on Poems of Goethe and Eichendorff, Dover Publications, 1995
!!NB: Vocal melody and text only encoded.
**kern	**silbe
*clefG2	*
*k[b-e-]	*
*M12/8	*
=3	=3
2.r	.
4.r	.
8r	.
{8dd	{U2-
8dd	-ber
=4	=4
4.cc	Wip-
4b-	-fel
8b-	und
4.a	Saa-
4.d	-ten
=5	=5
4cc	in
8cc	den
[4ee-	Glanz
16ee-]	|
16b-	hin-
[4.dd	-ein,
8dd]}	|}
8r	.
{8a	{wer
=6	=6
*k[f#c#]	*
4.g#	mag
4g#	sie
8g#	er-
4.b	-ra-
4b	-ten,
8a	wer
=7	=7
[4g#	hol-
16g#]	|
16g#	-te
4.g#	sie
[2.b	ein?
=8	=8
*M6/8	*
4.b]}	|}
8r	.
8r	.
{8c#	{Ge-
=9	=9
*M12/8	*
4.c#	-dan-
4f#	-ken
8a#	sich
([4cc#	wie-
16cc#]	|
16dd#)	|
8cc#	-gen,
8r	.
8f#	die
=10	=10
4.f#	Nacht
4an	ist
8dd	ver-
4.ff#	-schwie-
4ff#	-gen,
8b-	Ge-
=11	=11
2.ff#	-dan-
4.a	-ken
4.a	sind
=12	=12
2.dd}	frei.}
4.r	.
8r	.
8r	.
{8dd	{Er-
=13	=13
*k[b-e-]	*
4.cc	-ra2t'
4b-	es
8b-	nur
4.a	Ei-
4.d	-ne,
=14	=14
4cc	wer
8cc	an
[4ee-	sie
16ee-]	|
16b-	ge-
[4.dd	-dacht,
8dd]}	|}
8r	.
{8a	{beim
=15	=15
*k[f#c#]	*
4.g#	Rau-
4g#	-schen
8g#	der
4.b	Hai-
4b	-ne,
8a	wenn
=16	=16
[4g#	nie-
16g#]	|
16g#	-mand
4.g#	mehr
[2.b	wacht,
=17	=17
*M6/8	*
4.b]}	|}
8r	.
{8c#	{als
8c#	die
=18	=18
*M12/8	*
4.c#	Wol-
4f#	-ken,
8a#	die
([4cc#	flie-
16cc#]	|
16dd#)	|
4cc#	-gen,
8f#	mein
=19	=19
4.f#	Lieb
4an	ist
8dd	ver-
4.ff#	-schwie-
4ff#	-gen
8b-	und
=20	=20
[2.ff#	scho2n
4ff#]	|
[8ee	wie
4ee]	|
8a	die
=21	=21
[1.dd	Nacht.
=22	=22
8dd]}	|}
8r	.
8r	.
4.r	.
2.r	.
*-	*-
